X:46
T:Pacific Avenue
C:John McCusker
D:Liz Doherty: Quare Imagination (2002)
Z:Gwen 2022-03-24 d'après Liz Doherty
M:6/8
R:Jig
K:G
|: DGA B2B | cBc dfa | g2d Bcd | dec A2B |
   c2c DED | FAc dfa | gdB cAd |1 cAF GFE :|2 cAF GAB |
|: c2c AED | CEG DFA | B2B BAB |1 cdc A2B |
   c2c AED | CEG DFA | BGB cAF | AGF GAB :|2 cdc A2e |
   f2d gdd | eff age | A2f fed | cAF GFE ||

